poi/svg/2616.svg

<?xml version="1.0" encoding="UTF-8" standalone="no"?>
<svg
   xmlns:dc="http://purl.org/dc/elements/1.1/"
   xmlns:cc="http://creativecommons.org/ns#"
   xmlns:rdf="http://www.w3.org/1999/02/22-rdf-syntax-ns#"
   xmlns:svg="http://www.w3.org/2000/svg"
   xmlns="http://www.w3.org/2000/svg"
   xmlns:sodipodi="http://sodipodi.sourceforge.net/DTD/sodipodi-0.dtd"
   xmlns:inkscape="http://www.inkscape.org/namespaces/inkscape"
   inkscape:version="1.0 (4035a4fb49, 2020-05-01)"
   sodipodi:docname="2616.svg"
   id="svg20"
   version="1.2"
   viewBox="0 0 41.960159 41.960159"
   height="14.802627mm"
   width="14.802627mm">
  <metadata
     id="metadata24">
    <rdf:RDF>
      <cc:Work
         rdf:about="">
        <dc:format>image/svg+xml</dc:format>
        <dc:type
           rdf:resource="http://purl.org/dc/dcmitype/StillImage" />
        <dc:title>Qt SVG Document</dc:title>
      </cc:Work>
    </rdf:RDF>
  </metadata>
  <sodipodi:namedview
     inkscape:current-layer="svg20"
     inkscape:window-maximized="0"
     inkscape:window-y="0"
     inkscape:window-x="0"
     inkscape:cy="27.973442"
     inkscape:cx="27.973442"
     inkscape:zoom="5.8410537"
     showgrid="false"
     id="namedview22"
     inkscape:window-height="480"
     inkscape:window-width="1034"
     inkscape:pageshadow="2"
     inkscape:pageopacity="0"
     guidetolerance="10"
     gridtolerance="10"
     objecttolerance="10"
     borderopacity="1"
     bordercolor="#666666"
     pagecolor="#ffffff" />
  <title
     id="title2">Qt SVG Document</title>
  <desc
     id="desc4">Generated with Qt</desc>
  <defs
     id="defs6" />
  <g
     transform="translate(4.98006,4.98006)"
     id="g18"
     stroke-linejoin="bevel"
     stroke-linecap="square"
     fill-rule="evenodd"
     stroke-width="1"
     stroke="#000000"
     fill="none">
    <g
       id="g10"
       font-style="normal"
       font-weight="400"
       font-size="7.8px"
       font-family="'MS Shell Dlg 2'"
       stroke="none"
       fill-opacity="1"
       fill="#6fa56c">
      <path
         id="path8"
         d="M 36.9801,16 C 36.9801,27.587 27.587,36.9801 16,36.9801 4.41303,36.9801 -4.98006,27.587 -4.98006,16 -4.98006,4.41303 4.41303,-4.98006 16,-4.98006 27.587,-4.98006 36.9801,4.41303 36.9801,16"
         fill-rule="evenodd"
         vector-effect="non-scaling-stroke" />
    </g>
    <g
       id="g14"
       font-style="normal"
       font-weight="400"
       font-size="7.8px"
       font-family="'MS Shell Dlg 2'"
       transform="translate(18.2677,11.4646)"
       stroke="none"
       fill-opacity="0.94902"
       fill="#ffffff">
      <path
         id="path12"
         d="m -14.9346,19.458 c -0.1819,0 -0.3569,-0.0525 -0.5249,-0.1575 -0.1679,-0.1049 -0.2729,-0.2554 -0.3149,-0.4514 -0.07,-0.2379 -0.0455,-0.4654 0.0735,-0.6824 0.119,-0.2169 0.2974,-0.3604 0.5354,-0.4304 L 0.875488,13.1382 3.29004,9.7998 C 3.40202,9.65983 3.59798,9.54085 3.87793,9.44287 L 15.9087,7.44824 c 0.2379,-0.02799 0.4549,0.028 0.6509,0.16797 0.1959,0.13997 0.3079,0.32894 0.3359,0.5669 0.042,0.25195 -0.007,0.47591 -0.147,0.67187 -0.1399,0.19596 -0.3359,0.31494 -0.5879,0.35693 L 4.52881,11.1436 2.13525,14.3979 c -0.13997,0.182 -0.30094,0.294 -0.48291,0.336 L -14.6826,19.437 c -0.042,0.014 -0.126,0.021 -0.252,0.021 M 13.1372,0.414551 c 0.3219,0.797849 0.4829,1.606199 0.4829,2.425049 0,0.81885 -0.175,1.6132 -0.5249,2.38306 C 12.7733,6.00651 12.3184,6.68538 11.7305,7.25928 11.1426,7.83317 10.4637,8.28109 9.69385,8.60303 9.31592,8.743 8.92749,8.85148 8.52856,8.92847 8.12964,9.00545 7.73421,9.04395 7.34229,9.04395 6.92236,9.04395 6.50594,9.00195 6.09302,8.91797 5.68009,8.83398 5.27767,8.70101 4.88574,8.51904 4.10189,8.1971 3.42651,7.74569 2.85962,7.16479 2.29272,6.5839 1.85531,5.90153 1.54736,5.11768 1.30941,4.55778 1.15894,3.98739 1.09595,3.40649 1.03296,2.8256 1.05046,2.25171 1.14844,1.68481 1.24642,1.11792 1.42139,0.575521 1.67334,0.0576172 1.92529,-0.460286 2.24023,-0.936198 2.61816,-1.37012 L 1.12744,-3.0708 -1.91699,8.2041 c -0.014,0.028 -0.028,0.05599 -0.04199,0.08399 -0.014,0.02799 -0.028,0.06998 -0.042,0.12597 l -0.02099,0.021 c -0.08399,0.11198 -0.14698,0.18896 -0.18897,0.23096 -0.01399,0.01399 -0.02799,0.02099 -0.04199,0.02099 -0.014,0 -0.021,0.007 -0.021,0.021 C -2.31592,8.736 -2.35791,8.7535 -2.3999,8.7605 c -0.04199,0.007 -0.07699,0.02449 -0.10498,0.05249 -0.014,0 -0.021,0.007 -0.021,0.02099 v 0.021 l -2.09961,0.5249 c 0.12598,1.10582 -0.02799,2.16962 -0.46191,3.19142 -0.32194,0.7558 -0.77686,1.4242 -1.36475,2.0051 -0.58789,0.5809 -1.28076,1.0323 -2.07861,1.3543 -0.75586,0.2939 -1.53974,0.4409 -2.35154,0.4409 -0.4059,0 -0.8119,-0.0385 -1.2178,-0.1155 -0.4059,-0.077 -0.8048,-0.2065 -1.1968,-0.3884 -0.7978,-0.322 -1.4837,-0.7769 -2.0576,-1.3648 -0.5739,-0.5879 -1.0148,-1.2737 -1.3227,-2.0576 -0.322,-0.7698 -0.476,-1.5677 -0.462,-2.3935 0.014,-0.82589 0.175,-1.63074 0.4829,-2.41459 0.336,-0.75586 0.8014,-1.42424 1.3963,-2.00513 0.5949,-0.58089 1.2773,-1.03231 2.0471,-1.35425 0.4059,-0.16797 0.8224,-0.29044 1.2493,-0.36743 0.4269,-0.07699 0.8433,-0.10148 1.2492,-0.07349 l 0.7559,-4.640133 -0.7559,-1.049807 -1.6796,0.67188 c -0.196,0.08398 -0.4165,0.08048 -0.6614,-0.0105 -0.245,-0.09098 -0.4094,-0.24146 -0.4934,-0.45142 -0.084,-0.23795 -0.077,-0.47241 0.021,-0.70337 0.0979,-0.23095 0.2589,-0.39542 0.4829,-0.4934 l 2.3305,-0.92383 c 0.182,-0.06999 0.3745,-0.07699 0.5774,-0.021 0.203,0.05599 0.36047,0.15397 0.47245,0.29395 l 0.96582,1.40674 8.377441,-3.40137 c 0.139974,-0.33594 0.132975,-0.65088 -0.020996,-0.94483 -0.069987,-0.22395 -0.181966,-0.40592 -0.335938,-0.54589 -0.153971,-0.13998 -0.321937,-0.25896 -0.503907,-0.35694 -0.22396,-0.09798 -0.38143,-0.25895 -0.47241,-0.48291 -0.09098,-0.22396 -0.08049,-0.43392 0.03149,-0.62988 0.06999,-0.23796 0.22396,-0.40593 0.46192,-0.50391 0.237953,-0.09798 0.461911,-0.09798 0.671872,0 0.4059247,0.16797 0.766358,0.40943 1.081299,0.72437 0.314941,0.31494 0.549399,0.68237 0.703369,1.10229 0.13997,0.27995 0.22046,0.5634 0.24146,0.85034 0.02099,0.28695 0.00349,0.59139 -0.05249,0.91333 l 2.43554,2.83448 c 0.18197,-0.11198 0.36043,-0.20646 0.5354,-0.28345 0.17497,-0.07699 0.36044,-0.15747 0.5564,-0.24145 0.79785,-0.33594 1.6097,-0.49341 2.43555,-0.47242 0.82584,0.021 1.6062,0.18897 2.34106,0.50391 0.73487,0.31494 1.39627,0.76636 1.98417,1.35425 0.5879,0.58789 1.0428,1.280759 1.3647,2.078611 M -8.97168,4.10986 c 0.83984,0.27995 1.6132,0.72437 2.32007,1.33326 0.70687,0.60888 1.24227,1.35424 1.6062,2.23608 L -4.22656,7.44824 -8.53076,1.27539 -8.97168,4.10986 M -9.72754,8.87598 -6.83008,8.14111 C -7.09603,7.59521 -7.43896,7.1333 -7.85889,6.75537 -8.27881,6.37744 -8.75472,6.09049 -9.28662,5.89453 l -0.44092,2.98145 m 3.00244,3.00242 c 0.15397,-0.3219 0.25895,-0.6544 0.31494,-0.9973 0.05599,-0.3429 0.06999,-0.6824 0.042,-1.01831 l -4.26224,1.09181 h -0.2519 c -0.084,0 -0.1785,-0.014 -0.2835,-0.042 -0.105,-0.028 -0.2064,-0.077 -0.3044,-0.147 -0.112,-0.112 -0.189,-0.2414 -0.231,-0.3884 -0.042,-0.147 -0.042,-0.2974 0,-0.45142 l 0.6719,-4.3042 c -0.238,0 -0.4864,0.0245 -0.7454,0.07349 -0.2589,0.04899 -0.5074,0.12947 -0.7453,0.24145 -0.5879,0.22396 -1.0918,0.5459 -1.5117,0.96582 -0.42,0.41993 -0.7454,0.89934 -0.9764,1.43824 -0.2309,0.5389 -0.3534,1.10579 -0.3674,1.70072 -0.014,0.5948 0.098,1.1792 0.3359,1.7531 0.49,1.1618 1.2878,1.9737 2.3936,2.4356 1.1618,0.4899 2.3236,0.5109 3.48536,0.063 0.55989,-0.238 1.0463,-0.5669 1.45922,-0.9868 0.41293,-0.42 0.73837,-0.8959 0.97632,-1.4278 m 6.08887,-15.28514 -7.0127,2.792482 4.47217,6.529788 2.54053,-9.32227 M 9.02197,6.96533 C 9.60986,6.72738 10.1103,6.39494 10.5232,5.96802 10.9361,5.5411 11.2546,5.06169 11.4785,4.52979 11.7025,3.99788 11.8215,3.43449 11.8354,2.8396 11.8494,2.24471 11.7445,1.66032 11.5205,1.08643 11.1566,0.218587 10.5932,-0.470785 9.83032,-0.981689 9.06746,-1.49259 8.23812,-1.74805 7.34229,-1.74805 6.7404,-1.74805 6.1805,-1.62907 5.6626,-1.39111 5.55062,-1.36312 5.45614,-1.33162 5.37915,-1.29663 5.30216,-1.26164 5.22168,-1.20915 5.1377,-1.13916 L 8.01416,2.17822 C 8.18213,2.37419 8.25562,2.59465 8.23462,2.8396 8.21362,3.08455 8.10514,3.28402 7.90918,3.43799 7.83919,3.52197 7.75521,3.57796 7.65723,3.60596 7.55924,3.63395 7.45426,3.64795 7.34229,3.64795 7.09033,3.64795 6.85938,3.54297 6.64941,3.33301 L 3.79395,0.015625 C 3.31803,0.63151 3.01359,1.33138 2.88062,2.11523 2.74764,2.89909 2.84212,3.67594 3.16406,4.4458 3.38802,5.01969 3.71346,5.5166 4.14038,5.93652 4.5673,6.35645 5.04321,6.67839 5.56812,6.90234 6.09302,7.1263 6.65291,7.24878 7.2478,7.26978 7.84269,7.29077 8.43408,7.18929 9.02197,6.96533"
         fill-rule="evenodd"
         vector-effect="none" />
    </g>
    <g
       id="g16"
       font-style="normal"
       font-weight="400"
       font-size="7.8px"
       font-family="'MS Shell Dlg 2'"
       stroke="none"
       fill-opacity="1"
       fill="#6fa56c" />
  </g>
</svg>

<?xml version="1.0" encoding="UTF-8" standalone="no"?>
<svg width="11.2889mm" height="11.2889mm"
 viewBox="0 0 32 32"
 xmlns="http://www.w3.org/2000/svg" xmlns:xlink="http://www.w3.org/1999/xlink"  version="1.2" baseProfile="tiny">
<title>Qt SVG Document</title>
<desc>Generated with Qt</desc>
<defs>
</defs>
<g fill="none" stroke="black" stroke-width="1" fill-rule="evenodd" stroke-linecap="square" stroke-linejoin="bevel" >

<g fill="#6fa56c" fill-opacity="1" stroke="none" transform="matrix(1,0,0,1,0,0)"
font-family="MS Shell Dlg 2" font-size="7.8" font-weight="400" font-style="normal" 
>
<path vector-effect="non-scaling-stroke" fill-rule="evenodd" d="M36.9801,16 C36.9801,27.587 27.587,36.9801 16,36.9801 C4.41303,36.9801 -4.98006,27.587 -4.98006,16 C-4.98006,4.41303 4.41303,-4.98006 16,-4.98006 C27.587,-4.98006 36.9801,4.41303 36.9801,16 "/>
</g>

<g fill="#ffffff" fill-opacity="0.94902" stroke="none" transform="matrix(1,0,0,1,18.2677,11.4646)"
font-family="MS Shell Dlg 2" font-size="7.8" font-weight="400" font-style="normal" 
>
<path vector-effect="none" fill-rule="evenodd" d="M-14.9346,19.458 C-15.1165,19.458 -15.2915,19.4055 -15.4595,19.3005 C-15.6274,19.1956 -15.7324,19.0451 -15.7744,18.8491 C-15.8444,18.6112 -15.8199,18.3837 -15.7009,18.1667 C-15.5819,17.9498 -15.4035,17.8063 -15.1655,17.7363 L0.875488,13.1382 L3.29004,9.7998 C3.40202,9.65983 3.59798,9.54085 3.87793,9.44287 L15.9087,7.44824 C16.1466,7.42025 16.3636,7.47624 16.5596,7.61621 C16.7555,7.75618 16.8675,7.94515 16.8955,8.18311 C16.9375,8.43506 16.8885,8.65902 16.7485,8.85498 C16.6086,9.05094 16.4126,9.16992 16.1606,9.21191 L4.52881,11.1436 L2.13525,14.3979 C1.99528,14.5799 1.83431,14.6919 1.65234,14.7339 L-14.6826,19.437 C-14.7246,19.451 -14.8086,19.458 -14.9346,19.458 M13.1372,0.414551 C13.4591,1.2124 13.6201,2.02075 13.6201,2.8396 C13.6201,3.65845 13.4451,4.4528 13.0952,5.22266 C12.7733,6.00651 12.3184,6.68538 11.7305,7.25928 C11.1426,7.83317 10.4637,8.28109 9.69385,8.60303 C9.31592,8.743 8.92749,8.85148 8.52856,8.92847 C8.12964,9.00545 7.73421,9.04395 7.34229,9.04395 C6.92236,9.04395 6.50594,9.00195 6.09302,8.91797 C5.68009,8.83398 5.27767,8.70101 4.88574,8.51904 C4.10189,8.1971 3.42651,7.74569 2.85962,7.16479 C2.29272,6.5839 1.85531,5.90153 1.54736,5.11768 C1.30941,4.55778 1.15894,3.98739 1.09595,3.40649 C1.03296,2.8256 1.05046,2.25171 1.14844,1.68481 C1.24642,1.11792 1.42139,0.575521 1.67334,0.0576172 C1.92529,-0.460286 2.24023,-0.936198 2.61816,-1.37012 L1.12744,-3.0708 L-1.91699,8.2041 C-1.93099,8.2321 -1.94499,8.26009 -1.95898,8.28809 C-1.97298,8.31608 -1.98698,8.35807 -2.00098,8.41406 L-2.02197,8.43506 C-2.10596,8.54704 -2.16895,8.62402 -2.21094,8.66602 C-2.22493,8.68001 -2.23893,8.68701 -2.25293,8.68701 C-2.26693,8.68701 -2.27393,8.69401 -2.27393,8.70801 C-2.31592,8.736 -2.35791,8.7535 -2.3999,8.7605 C-2.44189,8.7675 -2.47689,8.78499 -2.50488,8.81299 C-2.51888,8.81299 -2.52588,8.81999 -2.52588,8.83398 L-2.52588,8.85498 L-4.62549,9.37988 C-4.49951,10.4857 -4.65348,11.5495 -5.0874,12.5713 C-5.40934,13.3271 -5.86426,13.9955 -6.45215,14.5764 C-7.04004,15.1573 -7.73291,15.6087 -8.53076,15.9307 C-9.28662,16.2246 -10.0705,16.3716 -10.8823,16.3716 C-11.2882,16.3716 -11.6942,16.3331 -12.1001,16.2561 C-12.506,16.1791 -12.9049,16.0496 -13.2969,15.8677 C-14.0947,15.5457 -14.7806,15.0908 -15.3545,14.5029 C-15.9284,13.915 -16.3693,13.2292 -16.6772,12.4453 C-16.9992,11.6755 -17.1532,10.8776 -17.1392,10.0518 C-17.1252,9.22591 -16.9642,8.42106 -16.6563,7.63721 C-16.3203,6.88135 -15.8549,6.21297 -15.26,5.63208 C-14.6651,5.05119 -13.9827,4.59977 -13.2129,4.27783 C-12.807,4.10986 -12.3905,3.98739 -11.9636,3.9104 C-11.5367,3.83341 -11.1203,3.80892 -10.7144,3.83691 L-9.9585,-0.803223 L-10.7144,-1.85303 L-12.394,-1.18115 C-12.59,-1.09717 -12.8105,-1.10067 -13.0554,-1.19165 C-13.3004,-1.28263 -13.4648,-1.43311 -13.5488,-1.64307 C-13.6328,-1.88102 -13.6258,-2.11548 -13.5278,-2.34644 C-13.4299,-2.57739 -13.2689,-2.74186 -13.0449,-2.83984 L-10.7144,-3.76367 C-10.5324,-3.83366 -10.3399,-3.84066 -10.137,-3.78467 C-9.934,-3.72868 -9.77653,-3.6307 -9.66455,-3.49072 L-8.69873,-2.08398 L-0.321289,-5.48535 C-0.181315,-5.82129 -0.188314,-6.13623 -0.342285,-6.43018 C-0.412272,-6.65413 -0.524251,-6.8361 -0.678223,-6.97607 C-0.832194,-7.11605 -1.00016,-7.23503 -1.18213,-7.33301 C-1.40609,-7.43099 -1.56356,-7.59196 -1.65454,-7.81592 C-1.74552,-8.03988 -1.73503,-8.24984 -1.62305,-8.4458 C-1.55306,-8.68376 -1.39909,-8.85173 -1.16113,-8.94971 C-0.923177,-9.04769 -0.699219,-9.04769 -0.489258,-8.94971 C-0.0833333,-8.78174 0.2771,-8.54028 0.592041,-8.22534 C0.906982,-7.9104 1.14144,-7.54297 1.29541,-7.12305 C1.43538,-6.8431 1.51587,-6.55965 1.53687,-6.27271 C1.55786,-5.98576 1.54036,-5.68132 1.48438,-5.35938 L3.91992,-2.5249 C4.10189,-2.63688 4.28035,-2.73136 4.45532,-2.80835 C4.63029,-2.88534 4.81576,-2.96582 5.01172,-3.0498 C5.80957,-3.38574 6.62142,-3.54321 7.44727,-3.52222 C8.27311,-3.50122 9.05347,-3.33325 9.78833,-3.01831 C10.5232,-2.70337 11.1846,-2.25195 11.7725,-1.66406 C12.3604,-1.07617 12.8153,-0.383301 13.1372,0.414551 M-8.97168,4.10986 C-8.13184,4.38981 -7.35848,4.83423 -6.65161,5.44312 C-5.94474,6.052 -5.40934,6.79736 -5.04541,7.6792 L-4.22656,7.44824 L-8.53076,1.27539 L-8.97168,4.10986 M-9.72754,8.87598 L-6.83008,8.14111 C-7.09603,7.59521 -7.43896,7.1333 -7.85889,6.75537 C-8.27881,6.37744 -8.75472,6.09049 -9.28662,5.89453 L-9.72754,8.87598 M-6.7251,11.8784 C-6.57113,11.5565 -6.46615,11.224 -6.41016,10.8811 C-6.35417,10.5382 -6.34017,10.1987 -6.36816,9.86279 L-10.6304,10.9546 L-10.8823,10.9546 C-10.9663,10.9546 -11.0608,10.9406 -11.1658,10.9126 C-11.2708,10.8846 -11.3722,10.8356 -11.4702,10.7656 C-11.5822,10.6536 -11.6592,10.5242 -11.7012,10.3772 C-11.7432,10.2302 -11.7432,10.0798 -11.7012,9.92578 L-11.0293,5.62158 C-11.2673,5.62158 -11.5157,5.64608 -11.7747,5.69507 C-12.0336,5.74406 -12.2821,5.82454 -12.52,5.93652 C-13.1079,6.16048 -13.6118,6.48242 -14.0317,6.90234 C-14.4517,7.32227 -14.7771,7.80168 -15.0081,8.34058 C-15.239,8.87948 -15.3615,9.44637 -15.3755,10.0413 C-15.3895,10.6361 -15.2775,11.2205 -15.0396,11.7944 C-14.5496,12.9562 -13.7518,13.7681 -12.646,14.23 C-11.4842,14.7199 -10.3224,14.7409 -9.16064,14.293 C-8.60075,14.055 -8.11434,13.7261 -7.70142,13.3062 C-7.28849,12.8862 -6.96305,12.4103 -6.7251,11.8784 M-0.63623,-3.40674 L-7.64893,-0.614258 L-3.17676,5.91553 L-0.63623,-3.40674 M9.02197,6.96533 C9.60986,6.72738 10.1103,6.39494 10.5232,5.96802 C10.9361,5.5411 11.2546,5.06169 11.4785,4.52979 C11.7025,3.99788 11.8215,3.43449 11.8354,2.8396 C11.8494,2.24471 11.7445,1.66032 11.5205,1.08643 C11.1566,0.218587 10.5932,-0.470785 9.83032,-0.981689 C9.06746,-1.49259 8.23812,-1.74805 7.34229,-1.74805 C6.7404,-1.74805 6.1805,-1.62907 5.6626,-1.39111 C5.55062,-1.36312 5.45614,-1.33162 5.37915,-1.29663 C5.30216,-1.26164 5.22168,-1.20915 5.1377,-1.13916 L8.01416,2.17822 C8.18213,2.37419 8.25562,2.59465 8.23462,2.8396 C8.21362,3.08455 8.10514,3.28402 7.90918,3.43799 C7.83919,3.52197 7.75521,3.57796 7.65723,3.60596 C7.55924,3.63395 7.45426,3.64795 7.34229,3.64795 C7.09033,3.64795 6.85938,3.54297 6.64941,3.33301 L3.79395,0.015625 C3.31803,0.63151 3.01359,1.33138 2.88062,2.11523 C2.74764,2.89909 2.84212,3.67594 3.16406,4.4458 C3.38802,5.01969 3.71346,5.5166 4.14038,5.93652 C4.5673,6.35645 5.04321,6.67839 5.56812,6.90234 C6.09302,7.1263 6.65291,7.24878 7.2478,7.26978 C7.84269,7.29077 8.43408,7.18929 9.02197,6.96533 "/>
</g>

<g fill="#6fa56c" fill-opacity="1" stroke="none" transform="matrix(1,0,0,1,0,0)"
font-family="MS Shell Dlg 2" font-size="7.8" font-weight="400" font-style="normal" 
>
</g>
</g>
</svg>
